X: 8044
T: Connie The Soldier
R: jig
M: 6/8
K: Dmixolydian
|:E/F/G|A3 B3|cBc E2D|E>FG E>FG|E/F/GA G>ED|
E2A A2B|c>Bc E2d|^c2A B>AG|1 F2D D:|2 F2D D2||
|:g|f>ed d2g|f>ed d2g|f>ed e2d|^c>AA A2g|
f>ga e>fg|f/g/fe d>^cA|G>AG E>FG|1 F2D D2:|2 F2D D3||

